X:56
T:Soldiers Cloak,The. JJo.056
S:J.Jones MS,1801,N.Shrops.
A:N Shropshire
Z:Neil Brookes 2006
M:6/8
L:1/8
Q:3/8=120
K:C
G|GEG GEG|c3e2c|dcB G2F|F3E2G|!
GEG GEG|c3e2c|dBG A2B|c3c2::!
c|e2ec2c|f2fe2c|cdcc2G|F3E2G|!
GEG GEG|c3e2c|dBG A2B|c3c2:|

